X:147
T: IM WALDE MUSS ICH LEBEN
N: B0176
O: Europa, Mitteleuropa, Deutschland
R: Natur - Lied, Wald
M: 6/8
L: 1/16
K: Bb
F2 | B4B2B2A2B2 | A4G2F4
F2 | B4B2c2B2c2 | d6z4
Bd | f4f2f2g2f2 | f4e2c4
f2 | d4d2c2B2c2 | B6
f6 | d4d2c3Bc2 | B6z4

